dist/assets/img/icons/li_mail.svg

<svg width="20" height="20" viewBox="0 0 20 20" fill="none" xmlns="http://www.w3.org/2000/svg">
<path fill-rule="evenodd" clip-rule="evenodd" d="M3.33337 4.16667C2.87694 4.16667 2.50004 4.54357 2.50004 5V15C2.50004 15.4564 2.87694 15.8333 3.33337 15.8333H16.6667C17.1231 15.8333 17.5 15.4564 17.5 15V5C17.5 4.54357 17.1231 4.16667 16.6667 4.16667H3.33337ZM0.833374 5C0.833374 3.6231 1.95647 2.5 3.33337 2.5H16.6667C18.0436 2.5 19.1667 3.6231 19.1667 5V15C19.1667 16.3769 18.0436 17.5 16.6667 17.5H3.33337C1.95647 17.5 0.833374 16.3769 0.833374 15V5Z" fill="black"/>
<path fill-rule="evenodd" clip-rule="evenodd" d="M0.983964 4.52251C1.24789 4.14547 1.7675 4.05378 2.14454 4.3177L9.99999 9.81652L17.8554 4.3177C18.2325 4.05378 18.7521 4.14547 19.016 4.52251C19.2799 4.89955 19.1882 5.41916 18.8112 5.68309L10.4779 11.5164C10.1909 11.7173 9.80904 11.7173 9.52211 11.5164L1.18877 5.68309C0.81173 5.41916 0.720035 4.89955 0.983964 4.52251Z" fill="black"/>
</svg>

<svg width="20" height="20" fill="none" xmlns="http://www.w3.org/2000/svg"><path fill-rule="evenodd" clip-rule="evenodd" d="M3.333 4.167A.838.838 0 002.5 5v10c0 .456.377.833.833.833h13.334A.838.838 0 0017.5 15V5a.838.838 0 00-.833-.833H3.333zM.833 5c0-1.377 1.123-2.5 2.5-2.5h13.334c1.377 0 2.5 1.123 2.5 2.5v10c0 1.377-1.123 2.5-2.5 2.5H3.333a2.505 2.505 0 01-2.5-2.5V5z" fill="#000"/><path fill-rule="evenodd" clip-rule="evenodd" d="M.984 4.523a.833.833 0 011.16-.205L10 9.817l7.855-5.5a.833.833 0 01.956 1.366l-8.333 5.833a.833.833 0 01-.956 0L1.19 5.683a.833.833 0 01-.205-1.16z" fill="#000"/></svg>
